Sources/FrostedUI/Resources/Icons.xcassets/rewardDiamond12.imageset/reward-diamond-12.svg

<svg width="13" height="12" viewBox="0 0 13 12" fill="none" xmlns="http://www.w3.org/2000/svg" data-fui-icon="true">
  <path
    d="M8.45215 0.250031C9.06749 0.250196 9.63819 0.573519 9.9541 1.10159L11.791 4.17288C12.1793 4.82251 12.1061 5.64873 11.6094 6.21976L7.33984 11.126C6.64237 11.9273 5.3968 11.9271 4.69922 11.126L0.429688 6.21976C-0.0672396 5.64866 -0.1404 4.82264 0.248047 4.17288L2.08496 1.10159C2.40099 0.573552 2.9715 0.250031 3.58691 0.250031H8.45215ZM3.58691 1.75003C3.49904 1.75003 3.41723 1.79673 3.37207 1.8721L1.53516 4.94241C1.47969 5.03524 1.49053 5.15381 1.56152 5.23538L5.83105 10.1407C5.93075 10.2549 6.10843 10.2551 6.20801 10.1407L10.4775 5.23538C10.5483 5.15388 10.5592 5.03512 10.5039 4.94241L8.66699 1.8721C8.62193 1.79677 8.53991 1.7502 8.45215 1.75003H3.58691ZM5.50195 3.33304C5.58847 2.76712 6.40372 2.76712 6.49023 3.33304L6.58496 3.9512C6.65117 4.38307 6.98999 4.72196 7.42188 4.78812L8.04004 4.88284C8.60591 4.96939 8.60593 5.7846 8.04004 5.87112L7.42188 5.96585C6.98995 6.03202 6.65112 6.37083 6.58496 6.80276L6.49023 7.42093C6.40367 7.98676 5.58852 7.98676 5.50195 7.42093L5.40723 6.80276C5.34108 6.37085 5.00221 6.03205 4.57031 5.96585L3.95215 5.87112C3.38623 5.78461 3.38623 4.96936 3.95215 4.88284L4.57031 4.78812C5.00217 4.72193 5.34102 4.38305 5.40723 3.9512L5.50195 3.33304Z"
    fill="currentColor"
  />
</svg>

<svg xmlns="http://www.w3.org/2000/svg" width="13" height="12" fill="none" data-fui-icon="true" viewBox="0 0 13 12"><path fill="currentColor" d="M8.452.25c.615 0 1.186.324 1.502.852l1.837 3.07a1.75 1.75 0 0 1-.182 2.048l-4.27 4.906a1.75 1.75 0 0 1-2.64 0L.43 6.22a1.75 1.75 0 0 1-.181-2.047l1.837-3.071A1.75 1.75 0 0 1 3.587.25zm-4.865 1.5a.25.25 0 0 0-.215.122l-1.837 3.07a.25.25 0 0 0 .027.293l4.27 4.906a.25.25 0 0 0 .376 0l4.27-4.906c.07-.081.081-.2.026-.293l-1.837-3.07a.25.25 0 0 0-.215-.122zm1.915 1.583c.086-.566.902-.566.988 0l.095.618a1 1 0 0 0 .837.837l.618.095c.566.086.566.902 0 .988l-.618.095a1 1 0 0 0-.837.837l-.095.618c-.086.566-.901.566-.988 0l-.095-.618a1 1 0 0 0-.837-.837l-.618-.095c-.566-.086-.566-.902 0-.988l.618-.095a1 1 0 0 0 .837-.837z"/></svg>
